antibot/app/images/dist/clicks-icon3.svg

<svg width="46" height="50" fill="none" xmlns="http://www.w3.org/2000/svg"><path d="M2.375 47.5h41.25M4.25 2.5h37.5m-35.625 0v45m33.75-45v45M15.5 11.875h3.75m-3.75 7.5h3.75m-3.75 7.5h3.75m7.5-15h3.75m-3.75 7.5h3.75m-3.75 7.5h3.75M15.5 47.5v-8.438a2.814 2.814 0 0 1 2.813-2.812h9.375a2.814 2.814 0 0 1 2.812 2.813V47.5" stroke="#DD5E5E" stroke-width="4" stroke-linecap="round" stroke-linejoin="round"/></svg>

<svg width="46" height="50" viewBox="0 0 46 50" fill="none" xmlns="http://www.w3.org/2000/svg">
<path d="M2.375 47.5H43.625M4.25 2.5H41.75M6.125 2.5V47.5M39.875 2.5V47.5M15.5 11.875H19.25M15.5 19.375H19.25M15.5 26.875H19.25M26.75 11.875H30.5M26.75 19.375H30.5M26.75 26.875H30.5M15.5 47.5V39.0625C15.5 37.51 16.76 36.25 18.3125 36.25H27.6875C29.24 36.25 30.5 37.51 30.5 39.0625V47.5" stroke="#DD5E5E" stroke-width="4" stroke-linecap="round" stroke-linejoin="round"/>
</svg>
